X: 2
T: Le Cadeau
T: The Gift
M: 4/4
L: 1/8
R: hornpipe
F: http://www.thesession.org/tunes/display/9362
K: Amaj
|: a2e2 fedc | f2f2 fgaf | e2e2 fedc | B2cA AGFE |
   a2e2 fedc | f2f2 fgaf | fedc cBAG | A2A2 A4  :|
|: Aece Aece | Bede Bede | Aece Aece | BAGF E2E2 |
   Aece Aece | Bede Bede | c2A2 cBAG | A2A2 A4  :|

%%sep 2 1 500

